brandFactory_export/3.Masa/Router_3Masa.svg

<?xml version="1.0" encoding="UTF-8"?>
<svg width="24px" height="24px" viewBox="0 0 24 24" version="1.1" xmlns="http://www.w3.org/2000/svg" xmlns:xlink="http://www.w3.org/1999/xlink">
    <title>3.Masa/Router_3Masa</title>
    <g id="Symbols" stroke="none" stroke-width="1" fill="none" fill-rule="evenodd">
        <g id="3.Masa/Router_3Masa" fill="#5CB615" fill-rule="nonzero">
            <path d="M13.3277311,5.70756303 C13.297479,2.91092437 11.5058824,1.28739496 11.4857143,1.27394958 C11.1865546,1.00840336 11.1596639,0.551260504 11.4252101,0.25210084 C11.4285714,0.248739496 11.4319328,0.245378151 11.4319328,0.242016807 C11.707563,-0.0571428571 12.1714286,-0.0806722689 12.4739496,0.188235294 C12.5680672,0.272268908 14.7630252,2.26554622 14.8,5.67058824 C14.8067227,5.78823529 14.9243697,9.1394958 12.5042017,11.2773109 C12.3697479,11.3983193 12.1915966,11.4621849 12.0134454,11.4621849 C11.805042,11.4621849 11.6033613,11.3747899 11.4621849,11.2168067 C11.1932773,10.9210084 11.2168067,10.4605042 11.5159664,10.1915966 L11.5226891,10.1848739 C13.4117647,8.51764706 13.3277311,5.73445378 13.3277311,5.70756303 L13.3277311,5.70756303 Z M10.2184874,5.73781513 C10.1983193,4.10420168 9.15630252,3.12941176 9.14621849,3.11932773 C8.84705882,2.85378151 8.82016807,2.39663866 9.08571429,2.09411765 L9.09243697,2.08739496 C9.36806723,1.78823529 9.83193277,1.76470588 10.1344538,2.03361345 C10.1983193,2.0907563 11.6739496,3.42857143 11.697479,5.69747899 C11.7008403,5.76806723 11.7815126,8.01008403 10.1546218,9.44537815 C10.0201681,9.56638655 9.84537815,9.6302521 9.66386555,9.6302521 C9.45210084,9.6302521 9.25378151,9.54285714 9.11260504,9.38487395 C8.84369748,9.08907563 8.86722689,8.63193277 9.16302521,8.36302521 C9.16638655,8.35966387 9.1697479,8.35630252 9.17310924,8.35630252 C10.2588235,7.39495798 10.2184874,5.75462185 10.2184874,5.73781513 L10.2184874,5.73781513 Z M6.83697479,19.6571429 C6.96806723,19.5260504 7.04201681,19.3344538 7.04201681,19.0756303 C7.04201681,18.5378151 6.72605042,18.2857143 6.23865546,18.2857143 C5.7512605,18.2857143 5.43529412,18.5344538 5.43529412,19.0756303 C5.43529412,19.3344538 5.5092437,19.5260504 5.63697479,19.6571429 C5.77815126,19.7983193 5.98655462,19.8655462 6.23865546,19.8655462 C6.48739496,19.8655462 6.69579832,19.794958 6.83697479,19.6571429 Z M3.91260504,19.6571429 C4.04033613,19.5260504 4.11428571,19.3344538 4.11428571,19.0756303 C4.11428571,18.5378151 3.79831933,18.2857143 3.31092437,18.2857143 C2.82352941,18.2857143 2.50756303,18.5344538 2.50756303,19.0756303 C2.50756303,19.3344538 2.58151261,19.5260504 2.7092437,19.6571429 C2.85042017,19.7983193 3.05882353,19.8655462 3.31092437,19.8655462 C3.56302521,19.8655462 3.77142857,19.794958 3.91260504,19.6571429 Z M22.7294118,15.4823529 C23.3210084,16.0941176 23.6235294,16.9714286 23.6235294,18.1042017 L23.6235294,20.0504202 C23.6235294,21.1798319 23.3210084,22.0638655 22.7294118,22.6722689 C22.1109244,23.3042017 21.1966387,23.6268908 20.0067227,23.6268908 L3.61680672,23.6268908 C2.42689076,23.6268908 1.51260504,23.3042017 0.894117647,22.6722689 C0.299159664,22.0605042 0,21.1764706 0,20.0470588 L0,18.1008403 C0,16.9714286 0.299159664,16.0907563 0.894117647,15.4789916 C1.51260504,14.8470588 2.42689076,14.5243697 3.61680672,14.5243697 L5.64033613,14.5243697 L5.64033613,5.72773109 C5.64033613,5.32436975 5.9697479,4.99831933 6.37983193,4.99831933 C6.78655462,4.99831933 7.11932773,5.32436975 7.11932773,5.72773109 L7.11932773,14.5243697 L20.0134454,14.5243697 C21.1966387,14.5277311 22.1142857,14.8470588 22.7294118,15.4823529 L22.7294118,15.4823529 Z" id="Router_3Masa"></path>
        </g>
    </g>
</svg>

<svg width="24" height="24" viewBox="0 0 24 24" xmlns="http://www.w3.org/2000/svg"><path d="M13.328 5.708c-.03-2.797-1.822-4.42-1.842-4.434a.723.723 0 01-.06-1.022.745.745 0 011.049-.064c.093.084 2.288 2.078 2.325 5.483.007.117.124 3.468-2.296 5.606a.74.74 0 01-1.042-.06.724.724 0 01.054-1.025l.007-.007c1.889-1.667 1.805-4.45 1.805-4.477zm-3.11.03c-.02-1.634-1.062-2.609-1.072-2.619a.727.727 0 01-.06-1.025l.006-.007a.745.745 0 011.042-.053c.064.057 1.54 1.395 1.563 3.663.004.071.085 2.313-1.542 3.748a.73.73 0 01-.491.185.734.734 0 01-.551-.245.723.723 0 01.06-1.029c1.086-.961 1.045-2.601 1.045-2.618zm-3.381 13.92c.131-.132.205-.324.205-.582 0-.538-.316-.79-.803-.79-.488 0-.804.248-.804.79 0 .258.074.45.202.581.141.141.35.209.602.209.248 0 .457-.071.598-.209zm-2.924 0c.127-.132.201-.324.201-.582 0-.538-.316-.79-.803-.79-.487 0-.803.248-.803.79 0 .258.074.45.201.581.141.141.35.209.602.209s.46-.071.602-.209zm18.816-4.176c.592.612.895 1.49.895 2.622v1.946c0 1.13-.303 2.014-.895 2.622-.618.632-1.532.955-2.722.955H3.617c-1.19 0-2.104-.323-2.723-.955C.3 22.061 0 21.176 0 20.047v-1.946c0-1.13.3-2.01.894-2.622.619-.632 1.533-.955 2.723-.955H5.64V5.728c0-.404.33-.73.74-.73.407 0 .74.326.74.73v8.796h12.893c1.184.004 2.101.323 2.716.958z" fill="#5CB615" fill-rule="nonzero"/></svg>
